X:1
T:Anniversary Choral
T:Anniversary Choral
T:Frank L. Armstrong
T:F. E. Pettingell, 1889
T:Public Domain Courtesy of the Cyber Hymnal™
T:Public Domain Courtesy of the Cyber Hymnal™
C:Frank L. Armstrong
Z:Public Domain
Z:Courtesy of the Cyber Hymnal™
%%score ( 1 2 ) 3
L:1/8
Q:1/4=110
M:4/4
K:G
V:1 treble 
V:2 treble 
V:3 bass 
V:1
 [Gd]2 [GB]2 [FA]2 [DG]2 | [DF]4 E4 | [CD]2 [CE]2 [CD]2 [CE]2 | [B,D]6 z2 | %4
w: 1.~Through the chang- ing|sea- sons|Of the chang- ing|year,|
w: 2.~Re- cords past and|pre- sent|We may now sur-|vey,|
w: 3.~From this fes- tal|ser- vice|To our work a-|new,|
 [DG]2 [DG]2 [DA]2 [DB]2 | [Dc]4 [^DB]4 | [^CA]2 [CE]2 [CF]2 [CG]2 | [DA]6 z2 | %8
w: With its light and|sha- dow,|With its hope and|fear;|
w: At this plea- sant|mile- stone|In life’s on- ward|way:|
w: With a quick- ened|pur- pose|Hearts both strong and|true:|
 [Gd]2 [GB]2 [FA]2 [DG]2 | [DF]4 E4 | [CD]2 [CE]2 [CD]2 [CE]2 | [B,D]6 z2 | %12
w: Through each glad ful-|fill- ment,|And each sad de-|feat,|
w: Know- ledge claims new|pow- er,|Truth her might ex-|tends,|
w: Fa- ther, lead Thy|forc- es,|One u- nit- ed|band—|
 [DG]2 [DG]2 [DA]2 [DB]2 | [Dc]4 [^DB]4 | [^CA]2 [CE]2 [=CG]2 [CF]2 | [B,G]6 z2 || %16
w: We have safe- ly|jour- neyed,|And a- gain we|meet.|
w: And the Mas- ter|know- eth|New and loy- al|friends.|
w: Ev- er on to|con- quest|’Neath their king’s com-|mand.|
"^Refrain" [CDA]3 [CDFA] [CDB]2 [CDFA]2 | [B,DG]4 [B,D]4 | [CDA]3 [CDFA] [CDB]2 [CDFA]2 | [B,DG]8 | %20
w: ||||
w: God hath kind- ly|led us|Through this chang- ing|year,|
w: ||||
 [EGce]3 [EGce] [E^Gd]2 [EGd]2 | [CEAc]3 [CEAc] !fermata![_B,E]4 | [B,D]3 [DG] [EB]2 [FA]2 | G8 |] %24
w: ||||
w: By His guid- ing|pro- vi- dence|We as- sem- ble|here.|
w: ||||
V:2
 x8 | x4 E4 | x8 | x8 | x8 | x8 | x8 | x8 | x8 | x4 E4 | x8 | x8 | x8 | x8 | x8 | x8 || x8 | x8 | %18
 x8 | x8 | x8 | x8 | x8 | G8 |] %24
V:3
 [G,B,]2 [G,D]2 [G,C]2 [G,B,]2 | [G,C]4 [G,C]4 | [F,A,]2 [F,A,]2 [D,F,]2 [D,F,]2 | [G,,G,]6 z2 | %4
 [B,,G,]2 [B,,G,]2 [A,,F,]2 [G,,G,]2 | [F,A,]4 [B,,A,]4 | [E,G,]2 [A,,G,]2 [A,,G,]2 [A,,G,]2 | %7
 [D,F,]6 z2 | [G,,B,]2 [G,D]2 [G,C]2 [G,B,]2 | [G,C]4 [G,C]4 | [F,A,]2 [F,A,]2 [D,F,]2 [D,F,]2 | %11
 [G,,G,]6 z2 | [B,,G,]2 [B,,G,]2 [A,,F,]2 [G,,G,]2 | [F,A,]4 [B,,A,]4 | %14
 [E,G,]2 [A,,G,]2 [D,A,]2 [D,A,]2 | [G,,G,]6 z2 || [F,,F,]2 [D,,D,]2 [F,,F,]2 [D,,D,]2 | %17
 ([G,,G,]2 [D,,D,]2) ([G,,G,]2 [D,,D,]2) | [F,,F,]2 [D,,D,]2 [F,,F,]2 [D,,D,]2 | %19
 ([G,,G,]2 [D,,D,]2 [G,,G,]2 [D,,D,]2) | [C,C]3 [C,C] [B,,B,]2 [B,,B,]2 | %21
 [A,,A,]3 [A,,A,] !fermata![^C,G,]4 | [D,G,]3 [D,B,] [D,^C]2 [D,=C]2 | [G,B,]8 |] %24

